svgs/light/laptop-mobile.svg

<svg xmlns="http://www.w3.org/2000/svg" viewBox="0 0 640 512"><!-- Font Awesome Pro 6.0.0-alpha2 by @fontawesome - https://fontawesome.com License - https://fontawesome.com/license (Commercial License) --><path d="M576 128H448C412.801 128 384 156.799 384 192V448C384 483.199 412.801 512 448 512H576C611.199 512 640 483.199 640 448V192C640 156.799 611.199 128 576 128ZM608 448C608 465.672 593.674 480 576 480H448C430.326 480 416 465.672 416 448V192C416 174.326 430.326 160 448 160H576C593.674 160 608 174.326 608 192V448ZM96 64C96 46.327 110.327 32 128 32H448C465.673 32 480 46.327 480 64V80C480 88.837 487.163 96 496 96H496C504.837 96 512 88.837 512 80V64C512 28.8 483.2 0 448 0H128C92.8 0 64 28.8 64 64V288H16C7.163 288 0 295.163 0 304V320C0.125 355.25 28.625 383.875 63.875 384H336C344.837 384 352 376.837 352 368V368C352 359.163 344.837 352 336 352H63.875C46.25 352 32 337.625 32 320H336C344.837 320 352 312.837 352 304V304C352 295.163 344.837 288 336 288H96V64Z"/></svg>

<svg xmlns="http://www.w3.org/2000/svg" viewBox="0 0 640 512"><!--! Font Awesome Pro 6.0.0-alpha3 by @fontawesome - https://fontawesome.com License - https://fontawesome.com/license (Commercial License) --><path d="M576 128h-128c-35.2 0-64 28.8-64 64v256c0 35.2 28.8 64 64 64h128c35.2 0 64-28.8 64-64V192C640 156.8 611.2 128 576 128zM608 448c0 17.67-14.33 32-32 32h-128c-17.67 0-32-14.33-32-32V192c0-17.67 14.33-32 32-32h128c17.67 0 32 14.33 32 32V448zM96 64c0-17.67 14.33-32 32-32h320c17.67 0 32 14.33 32 32v16C480 88.84 487.2 96 495.1 96S512 88.84 512 80V64c0-35.2-28.8-64-64-64H128C92.8 0 64 28.8 64 64v224H16C7.163 288 0 295.2 0 304V320c.125 35.25 28.63 63.88 63.88 64h272.1C344.8 384 352 376.8 352 368S344.8 352 336 352H63.88C46.25 352 32 337.6 32 320h304C344.8 320 352 312.8 352 304S344.8 288 336 288H96V64z"/></svg>
